X:01
T: The Moving Pint
M: 4/4
K: Gmaj
G3B A3d|B2BA BGEF|GABG A2 (3Bcd|eA (3cBA EA (3cBA|
G3B A^GAd|B2BA BE~E2|GABG ABcd|1 ecAF GDB,D:|2 ecAF GA (3Bcd||
|:g2fg edBd|eaag agef|g2fg edBd|(3efg fa ~g3f|
(3gfe fg edBd|eaag agef|gbag eage|1 dBAB GA (3Bcd:|2 dged ~B3A||
T: Dog Big And Dog Little
M: 4/4
K: Dmaj
d2dc d2AF | d2fd (3Bcd ec | dcde dAFA | BGEA FDFA |
dfec d2AF | defd (3Bcd ec | defd AFDF | BGEA FDFA |
BE (3EEE BEcE | BE (3EEE ABcd | BE (3EEE BEcE | dcdA FGAd |
BE (3EEE BEcE | BE (3EEE ABcd | BE (3EEE BEcE | dcdA FGBc |
d2fd cdec | (3dcd fd faaf | d2fd adfa | bged ceAc |
d2Ad (3Bcd ec | defd faaf | ~g2gf edBA | (3Bcd eg (3fgf ef :|d8 ||
